X:7
T:Polka GD&C (tinwhistle in D) solo
T:pk05029 (Hanny Christen)
%%MIDI program 72   % 111 /74 / 79=whistle
M:2/4
L:1/16
K:Gmaj%%MIDI gchordon
GB |: "G"d2GB d2GB | d2g2 B2de | "D7"d2c2 A2cd | "G"c2B2 G2GB | d2GB d2GB | d2g2 B2GB | "D"A2f2 "A7"fe^de |1 "D"d2d2 d2GB :|2 
"D"d2d2 d2z2 |: [K:Dmaj] "A7"ABcd e2g2 | "D"g2f2 agf2 | "A7"f2e2 gfe2 | "D"e2d2 fed2 | "A7"ABcd e2g2 | "D"g2f2 agf2 | "A7"f2e2 gfec | "D"d2d2 d2z2 :: [K:Gmaj] 
"D7"Td2c2 cFAc | "G"Te2d2 dGBd | "D7"Tg2f2 fAdf | "G"a2gb agfe | "D7"d2c2 cFAc | "G"e2d2 dGBd | "D7"g2f2 fdef | "G"g2g2 g2z2 :: [K:Cmaj] 
"C"cEGc eGce | gceag4 | "G7"gfdB GBdf | "C"ecGE C4 | cEGc eGce | gceag4 | "G7"gfdB Gfed | "C"c2c2 c2z2 :| [K:Gmaj] 
"D7"dcAF DFAc | "G"edBG DGBd | "D7"GFAG "C"FEGF | "G"EDFED4 | "D7"dcAF DFAc | "G"edBG DGBd | "C"gfed "D7"edcA | "_>Teil D""G".G4!>!G4 |] 

